build/img/icon/skype.svg

<svg width="46" height="46" viewBox="0 0 46 46" fill="none" xmlns="http://www.w3.org/2000/svg">
<path d="M25.5545 21.3617L22.3917 20.6598C21.1886 20.3857 19.8038 20.0235 19.8038 18.8892C19.8038 17.7525 20.7752 16.9583 22.5289 16.9583C26.0634 16.9583 25.7405 19.3872 27.4953 19.3872C28.4186 19.3872 29.2269 18.8443 29.2269 17.9108C29.2269 15.7324 25.7405 14.0977 22.783 14.0977C19.5725 14.0977 16.1535 15.4611 16.1535 19.0924C16.1535 20.8412 16.7782 22.7016 20.2197 23.5646L24.4929 24.6315C25.7861 24.9501 26.1097 25.6777 26.1097 26.334C26.1097 27.4254 25.0256 28.4916 23.0617 28.4916C19.2254 28.4916 19.7578 25.5394 17.7019 25.5394C16.7782 25.5394 16.1079 26.1757 16.1079 27.0836C16.1079 28.8538 18.2571 31.216 23.0617 31.216C27.6328 31.216 29.8979 29.0128 29.8979 26.062C29.8979 24.1566 29.0194 22.1338 25.5545 21.3617Z" fill="#03A9F4"/>
<path d="M23 0C10.2994 0 0 10.2994 0 23C0 35.7006 10.2994 46 23 46C35.7006 46 46 35.7006 46 23C46 10.2994 35.7006 0 23 0ZM34.9748 34.9408C33.4626 36.4538 31.453 37.2852 29.315 37.2852C27.9302 37.2852 26.5741 36.9251 25.3763 36.2474C24.5989 36.3853 23.8026 36.458 23.0081 36.458C21.1824 36.458 19.4108 36.1 17.7441 35.3935C16.1326 34.7141 14.687 33.7381 13.4443 32.4961C12.203 31.2544 11.228 29.8088 10.5475 28.198C9.8414 26.5302 9.48413 24.7597 9.48413 22.9337C9.48413 22.1517 9.55432 21.3688 9.68768 20.6026C9.03035 19.4203 8.68045 18.0825 8.68045 16.7211C8.68045 14.5828 9.51361 12.5722 11.0252 11.0603C12.5374 9.54765 14.548 8.71484 16.6864 8.71484C17.9961 8.71484 19.2904 9.04158 20.4409 9.65329C20.443 9.65294 20.4454 9.65294 20.4472 9.65224C21.2859 9.4915 22.1475 9.41043 23.0081 9.41043C24.8334 9.41043 26.6046 9.76805 28.2713 10.4731C29.8811 11.1543 31.3284 12.1293 32.5694 13.3709C33.8121 14.6129 34.7867 16.0592 35.4679 17.6697C36.174 19.3371 36.5313 21.108 36.5313 22.9337C36.5313 23.7567 36.4538 24.5803 36.306 25.3851C36.9679 26.572 37.3199 27.9144 37.3199 29.2803C37.3195 31.4186 36.4874 33.4296 34.9748 34.9408Z" fill="#03A9F4"/>
</svg>

<svg width="46" height="46" fill="none" xmlns="http://www.w3.org/2000/svg"><path d="M25.555 21.362l-3.163-.702c-1.203-.274-2.588-.637-2.588-1.77 0-1.137.971-1.932 2.725-1.932 3.534 0 3.212 2.43 4.966 2.43.924 0 1.732-.544 1.732-1.477 0-2.179-3.486-3.813-6.444-3.813-3.21 0-6.63 1.363-6.63 4.994 0 1.75.625 3.61 4.067 4.473l4.273 1.066c1.293.32 1.617 1.047 1.617 1.703 0 1.091-1.084 2.158-3.048 2.158-3.837 0-3.304-2.953-5.36-2.953-.924 0-1.594.637-1.594 1.545 0 1.77 2.15 4.132 6.954 4.132 4.57 0 6.836-2.203 6.836-5.154 0-1.905-.879-3.928-4.343-4.7z" fill="#03A9F4"/><path d="M23 0C10.3 0 0 10.3 0 23s10.3 23 23 23 23-10.3 23-23S35.7 0 23 0zm11.975 34.94a7.947 7.947 0 01-5.66 2.345 8 8 0 01-3.939-1.038c-.777.138-1.573.211-2.368.211-1.826 0-3.597-.358-5.264-1.064a13.448 13.448 0 01-4.3-2.898 13.465 13.465 0 01-2.897-4.298 13.426 13.426 0 01-1.063-5.264c0-.782.07-1.565.204-2.331A7.996 7.996 0 018.68 16.72c0-2.138.834-4.149 2.345-5.66a7.952 7.952 0 015.661-2.346c1.31 0 2.604.327 3.755.938h.006c.839-.162 1.7-.243 2.561-.243a13.478 13.478 0 019.561 3.96 13.468 13.468 0 012.899 4.3 13.424 13.424 0 011.063 5.264 13.6 13.6 0 01-.225 2.451 8.005 8.005 0 011.014 3.895 7.95 7.95 0 01-2.345 5.66z" fill="#03A9F4"/></svg>
